dist/svgs/geomicons-open/icons/clock.svg

<svg xmlns="http://www.w3.org/2000/svg" viewBox="0 0 32 32"><path d="M16 0A16 16 0 000 16a16 16 0 0016 16 16 16 0 0016-16A16 16 0 0016 0m0 4a12 12 0 0112 12 12 12 0 01-12 12A12 12 0 014 16 12 12 0 0116 4m-2 2v11.25L22 22l2.25-3.5L18 14.75V6z"/></svg>

<svg id="clock" xmlns="http://www.w3.org/2000/svg" viewBox="0 0 32 32" width="32" height="32" fill="currentcolor">
  <path d="M16 0 A16 16 0 0 0 0 16 A16 16 0 0 0 16 32 A16 16 0 0 0 32 16 A16 16 0 0 0 16 0 M16 4 A12 12 0 0 1 28 16 A12 12 0 0 1 16 28 A12 12 0 0 1 4 16 A12 12 0 0 1 16 4 M14 6 L14 17.25 L22 22 L24.25 18.5 L18 14.75 L18 6z"></path>
</svg>
